svgs/sharp-thin/messages-question.svg

<svg xmlns="http://www.w3.org/2000/svg" viewBox="0 0 640 512"><!--! Font Awesome Pro 6.6.0 by @fontawesome - https://fontawesome.com License - https://fontawesome.com/license (Commercial License) Copyright 2024 Fonticons, Inc. --><path d="M80 320l16 0 0 16 0 30.1L96 384l16-8 112-56 176 0 16 0 0-16 0-288 0-16L400 0 16 0 0 0 0 16 0 304l0 16 16 0 64 0zM16 304L16 16l384 0 0 288-176 0-3.8 0-3.4 1.7L112 358.1l0-38.1 0-16-16 0-80 0zm240 48l0 80 0 16 16 0 144 0 112 56 16 8 0-17.9 0-30.1 0-16 16 0 64 0 16 0 0-16 0-288 0-16-16 0-176 0 0 16 176 0 0 288-80 0-16 0 0 16 0 38.1L423.2 433.7l-3.4-1.7-3.8 0-144 0 0-80-16 0zM143.3 125l0 4.6 16 0 0-4.6c0-14.4 11.6-26 26-26l39.8 0c17.4 0 31.5 14.1 31.5 31.5c0 10.6-5.3 20.5-14.2 26.3l-38.9 25.6-3.6 2.4 0 4.3 0 20.9 0 8 16 0 0-8 0-16.6 35.3-23.3c13.3-8.8 21.4-23.7 21.4-39.7c0-26.2-21.3-47.5-47.5-47.5l-39.8 0c-23.2 0-42 18.8-42 42zm53.3 107.7l0 22.7 22.7 0 0-22.7-22.7 0z"/></svg>

<svg xmlns="http://www.w3.org/2000/svg" viewBox="0 0 640 512"><!--! Font Awesome Pro 6.5.2 by @fontawesome - https://fontawesome.com License - https://fontawesome.com/license (Commercial License) Copyright 2024 Fonticons, Inc. --><path d="M80 320H96v16 30.1V384l16-8 112-56H400h16V304 16 0H400 16 0V16 304v16H16 80zM16 304V16H400V304H224h-3.8l-3.4 1.7L112 358.1V320 304H96 16zm240 48v80 16h16H416l112 56 16 8V494.1 464 448h16 64 16V432 144 128H624 448v16H624V432H544 528v16 38.1L423.2 433.7l-3.4-1.7H416 272V352H256zM143.3 125l0 4.6 16 0 0-4.6c0-14.4 11.6-26 26-26h39.8c17.4 0 31.5 14.1 31.5 31.5c0 10.6-5.3 20.5-14.2 26.3l-38.9 25.6-3.6 2.4v4.3V210v8h16v-8V193.4l35.3-23.3c13.3-8.8 21.4-23.7 21.4-39.7c0-26.2-21.3-47.5-47.5-47.5H185.3c-23.2 0-42 18.8-42 42zm53.3 107.7v22.7h22.7V232.7H196.7z"/></svg>
